X: 77
T:D'alaigh's Polka
R:Polka
S:Matt Cranitch book
Z:Added by alf.warnock@rogers.com
M:2/4
L:1/8
K:G
eA {Bd}BA|eA {Bd}BA|eA {Bd}BA|G2 GB/d/|
eA {Bd}BA|eA {Bd}BA|Be dB|A2 A2:|
|:ed ef|ga ga/g/|ed ef|az g2{ag}|
ed ef|ga g/a/g/e/|dB gB|A2A2:|

